contributed-vectors/tool_box.svg

<svg xmlns="http://www.w3.org/2000/svg" xml:space="preserve" style="fill-rule:evenodd;clip-rule:evenodd;stroke-linejoin:round;stroke-miterlimit:1.5" viewBox="0 0 192 192"><path d="M172 29.935c0-5.483-4.452-9.935-9.935-9.935H29.935C24.452 20 20 24.452 20 29.935v132.13c0 5.483 4.452 9.935 9.935 9.935h132.13c5.483 0 9.935-4.452 9.935-9.935V29.935Z" style="fill:#56595b"/><path d="M126.549 56.787a5.191 5.191 0 0 0-1.505-3.657 5.123 5.123 0 0 0-3.634-1.515H71.385c-1.363 0-2.67.545-3.634 1.515a5.191 5.191 0 0 0-1.505 3.657v17.078h60.303V56.787Z" style="fill:none;stroke:#fff;stroke-width:6.98px" transform="matrix(.61391 0 0 .60998 36.771 37.846)"/><path d="M157.051 75.336a9.753 9.753 0 0 0-2.89-6.922 9.911 9.911 0 0 0-6.977-2.867H46.028a9.909 9.909 0 0 0-6.976 2.867 9.749 9.749 0 0 0-2.89 6.922v59.593a9.749 9.749 0 0 0 2.89 6.922 9.909 9.909 0 0 0 6.976 2.867h101.156a9.911 9.911 0 0 0 6.977-2.867 9.753 9.753 0 0 0 2.89-6.922V75.336Z" style="fill:#fff" transform="matrix(.60386 0 0 .60867 37.663 38.075)"/><path d="M116.212 87.861c0-1.097-.42-2.148-1.167-2.923a3.91 3.91 0 0 0-2.816-1.21H80.873a3.91 3.91 0 0 0-2.816 1.21 4.213 4.213 0 0 0-1.167 2.923v12.608c0 1.096.42 2.147 1.167 2.923a3.91 3.91 0 0 0 2.816 1.21h31.356a3.91 3.91 0 0 0 2.816-1.21 4.217 4.217 0 0 0 1.167-2.923V87.861Z" style="fill:none;stroke:#56595b;stroke-width:6.14px;stroke-linecap:round" transform="matrix(.60747 0 0 .58542 37.299 40.435)"/><path d="M76.339 94.165H42.585" style="fill:none;stroke:#56595b;stroke-width:6.01px" transform="matrix(-.60706 0 0 -.60998 109.859 153)"/><path d="M76.339 94.165H42.585" style="fill:none;stroke:#56595b;stroke-width:6.01px" transform="matrix(-.60706 0 0 -.60998 154.236 153)"/></svg>

<?xml version="1.0" encoding="UTF-8" standalone="no"?>
<!DOCTYPE svg PUBLIC "-//W3C//DTD SVG 1.1//EN" "http://www.w3.org/Graphics/SVG/1.1/DTD/svg11.dtd">
<svg width="100%" height="100%" viewBox="0 0 192 192" version="1.1" xmlns="http://www.w3.org/2000/svg" xmlns:xlink="http://www.w3.org/1999/xlink" xml:space="preserve" xmlns:serif="http://www.serif.com/" style="fill-rule:evenodd;clip-rule:evenodd;stroke-linejoin:round;stroke-miterlimit:1.5;">
    <g id="New">
    </g>
    <path d="M172,29.935C172,24.452 167.548,20 162.065,20L29.935,20C24.452,20 20,24.452 20,29.935L20,162.065C20,167.548 24.452,172 29.935,172L162.065,172C167.548,172 172,167.548 172,162.065L172,29.935Z" style="fill:rgb(86,89,91);"/>
    <g transform="matrix(0.613911,0,0,0.609983,36.7712,37.8461)">
        <path d="M126.549,56.787C126.549,55.415 126.007,54.1 125.044,53.13C124.08,52.16 122.773,51.615 121.41,51.615C110.023,51.615 82.772,51.615 71.385,51.615C70.022,51.615 68.715,52.16 67.751,53.13C66.788,54.1 66.246,55.415 66.246,56.787C66.246,63.36 66.246,73.865 66.246,73.865L126.549,73.865L126.549,56.787Z" style="fill:none;stroke:white;stroke-width:6.98px;"/>
    </g>
    <g transform="matrix(0.603859,0,0,0.60867,37.6635,38.0754)">
        <path d="M157.051,75.336C157.051,72.74 156.011,70.25 154.161,68.414C152.31,66.579 149.801,65.547 147.184,65.547C124.477,65.547 68.735,65.547 46.028,65.547C43.412,65.547 40.902,66.579 39.052,68.414C37.201,70.25 36.162,72.74 36.162,75.336C36.162,90.553 36.162,119.712 36.162,134.929C36.162,137.525 37.201,140.015 39.052,141.851C40.902,143.686 43.412,144.718 46.028,144.718C68.735,144.718 124.477,144.718 147.184,144.718C149.801,144.718 152.31,143.686 154.161,141.851C156.011,140.015 157.051,137.525 157.051,134.929C157.051,119.712 157.051,90.553 157.051,75.336Z" style="fill:white;"/>
    </g>
    <g transform="matrix(0.607472,0,0,0.58542,37.2986,40.4354)">
        <path d="M116.212,87.861C116.212,86.764 115.792,85.713 115.045,84.938C114.298,84.163 113.285,83.728 112.229,83.728C104.689,83.728 88.413,83.728 80.873,83.728C79.817,83.728 78.804,84.163 78.057,84.938C77.31,85.713 76.89,86.764 76.89,87.861C76.89,91.514 76.89,96.816 76.89,100.469C76.89,101.565 77.31,102.616 78.057,103.392C78.804,104.167 79.817,104.602 80.873,104.602C88.413,104.602 104.689,104.602 112.229,104.602C113.285,104.602 114.298,104.167 115.045,103.392C115.792,102.616 116.212,101.565 116.212,100.469C116.212,96.816 116.212,91.514 116.212,87.861Z" style="fill:none;stroke:rgb(86,89,91);stroke-width:6.14px;stroke-linecap:round;"/>
    </g>
    <g transform="matrix(-0.607058,-7.43432e-17,7.47013e-17,-0.609983,109.859,153)">
        <path d="M76.339,94.165L42.585,94.165" style="fill:none;stroke:rgb(86,89,91);stroke-width:6.01px;"/>
    </g>
    <g transform="matrix(-0.607058,-7.43432e-17,7.47013e-17,-0.609983,154.236,153)">
        <path d="M76.339,94.165L42.585,94.165" style="fill:none;stroke:rgb(86,89,91);stroke-width:6.01px;"/>
    </g>
</svg>
